packages/kaspersky-hexa-ui-icons/src/iconsSVGs/64x42/FlagQa.svg

<svg xmlns="http://www.w3.org/2000/svg" width="64" height="42" fill="none" viewBox="0 0 64 42"><g clip-path="url(#a)"><rect width="64" height="42" fill="#fff" rx="5"/><rect width="35" height="41" x="1" y="1" stroke="#f5f5f5" rx="5"/><path fill="#a6264c" fill-rule="evenodd" d="M64 0H22l4.2 2.8L22 5.6l4.2 2.8-4.2 2.8 4.2 2.8-4.2 2.8 4.2 2.8-4.2 2.8 4.2 2.8L22 28l4.2 2.8-4.2 2.8 4.2 2.8-4.2 2.8 4.2 2.8H64z" clip-rule="evenodd"/></g><defs><clipPath id="a"><rect width="64" height="42" fill="#fff" rx="5"/></clipPath></defs></svg>

<svg width="64" height="42" viewBox="0 0 64 42" fill="none" xmlns="http://www.w3.org/2000/svg">
<g clip-path="url(#clip0_37941_2335)">
<rect width="64" height="42" rx="5" fill="white"/>
<rect x="0.5" y="0.5" width="35.1554" height="41" rx="4.5" stroke="#F5F5F5"/>
<path fill-rule="evenodd" clip-rule="evenodd" d="M64 0H22L26.2 2.8L22 5.6L26.2 8.4L22 11.2L26.2 14L22 16.8L26.2 19.6L22 22.4L26.2 25.2L22 28L26.2 30.8L22 33.6L26.2 36.4L22 39.2L26.2 42H64V0Z" fill="#A6264C"/>
</g>
<defs>
<clipPath id="clip0_37941_2335">
<rect width="64" height="42" rx="5" fill="white"/>
</clipPath>
</defs>
</svg>
